img/icons/hardware/mouse.svg

<svg fill="none" viewBox="0 0 16 16" xmlns="http://www.w3.org/2000/svg"><path d="m8 1c2.76 0 5 2.24 5 5v4c0 2.76-2.24 5-5 5-2.76 0-5-2.24-5-5v-4c0-2.76 2.24-5 5-5zm4 8v1c0 2.21-1.79 4-4 4-2.21 0-4-1.79-4-4v-1h8zm-5-3c0 0.37 0.201 0.693 0.5 0.866v1.13h-3.5v-2c0-2.04 1.53-3.72 3.5-3.97v1.1c-0.299 0.173-0.5 0.496-0.5 0.866v2zm1.5-2.87c0.299 0.173 0.5 0.496 0.5 0.866v2c0 0.37-0.201 0.693-0.5 0.866v1.13h3.5v-2c0-2.04-1.53-3.72-3.5-3.97v1.1z" clip-rule="evenodd" fill="#000" fill-rule="evenodd"/></svg>

<svg xmlns="http://www.w3.org/2000/svg" viewBox="0 0 16 16" fill="none">
  <path fill="#000" fill-rule="evenodd"
    d="M8 1a5 5 0 0 1 5 5v4a5 5 0 0 1-10 0V6a5 5 0 0 1 5-5Zm4 8v1a4 4 0 0 1-8 0V9h8ZM7 6a1 1 0 0 0 .5.867V8H4V6a4 4 0 0 1 3.5-3.969v1.103A1 1 0 0 0 7 4v2Zm1.5-2.866A1 1 0 0 1 9 4v2a1 1 0 0 1-.5.867V8H12V6a4 4 0 0 0-3.5-3.969v1.103Z"
    clip-rule="evenodd" />
</svg>
